X:3915
T:Maid in the Cherry Tree, The
O:england
R:reel
S:O'Neill's
M:C|
K:Amix
eAAF G2cd|eA~A2 gAfA|eAAF ~G3B|dBgB BA~A2:|
ea~a2 (3bag ag|eaag (3efg dg|ea~a2 baaf|gedB BA~A2|
ea~a2 (3bag ag|eaaf ~g3a|bgaf gefd|edgB BA~A2||
